src/assets/outline/Video.svg

<svg width="24" height="24" viewBox="0 0 24 24"  xmlns="http://www.w3.org/2000/svg">
<path d="M12.88 20.8599H6.81C3.26 20.8599 2 18.3699 2 16.0499V7.94989C2 4.48989 3.35 3.13989 6.81 3.13989H12.88C16.34 3.13989 17.69 4.48989 17.69 7.94989V16.0499C17.69 19.5099 16.34 20.8599 12.88 20.8599ZM6.81 4.65989C4.2 4.65989 3.52 5.33989 3.52 7.94989V16.0499C3.52 17.2799 3.95 19.3399 6.81 19.3399H12.88C15.49 19.3399 16.17 18.6599 16.17 16.0499V7.94989C16.17 5.33989 15.49 4.65989 12.88 4.65989H6.81Z" />
<path d="M20.7797 18.11C20.3497 18.11 19.7997 17.97 19.1697 17.53L16.4997 15.66C16.2997 15.52 16.1797 15.29 16.1797 15.04V8.95999C16.1797 8.70999 16.2997 8.48 16.4997 8.33999L19.1697 6.46999C20.3597 5.63999 21.2297 5.87999 21.6397 6.08999C22.0497 6.30999 22.7497 6.87999 22.7497 8.32999V15.66C22.7497 17.11 22.0497 17.69 21.6397 17.9C21.4497 18.01 21.1497 18.11 20.7797 18.11ZM17.6897 14.64L20.0397 16.28C20.4897 16.59 20.8097 16.62 20.9397 16.55C21.0797 16.48 21.2297 16.2 21.2297 15.66V8.33999C21.2297 7.78999 21.0697 7.51999 20.9397 7.44999C20.8097 7.37999 20.4897 7.40999 20.0397 7.71999L17.6897 9.35999V14.64Z" />
<path d="M11.5 11.75C10.26 11.75 9.25 10.74 9.25 9.5C9.25 8.26 10.26 7.25 11.5 7.25C12.74 7.25 13.75 8.26 13.75 9.5C13.75 10.74 12.74 11.75 11.5 11.75ZM11.5 8.75C11.09 8.75 10.75 9.09 10.75 9.5C10.75 9.91 11.09 10.25 11.5 10.25C11.91 10.25 12.25 9.91 12.25 9.5C12.25 9.09 11.91 8.75 11.5 8.75Z" />
</svg>

<?xml version="1.0" encoding="UTF-8"?>
<svg width="24" height="24" viewBox="0 0 24 24" xmlns="http://www.w3.org/2000/svg">
 <path d="m12.88 20.86h-6.07c-3.55 0-4.81-2.49-4.81-4.81v-8.1c0-3.46 1.35-4.81 4.81-4.81h6.07c3.46 0 4.81 1.35 4.81 4.81v8.1c0 3.46-1.35 4.81-4.81 4.81zm-6.07-16.2c-2.61 0-3.29 0.68-3.29 3.29v8.1c0 1.23 0.43 3.29 3.29 3.29h6.07c2.61 0 3.29-0.68 3.29-3.29v-8.1c0-2.61-0.68-3.29-3.29-3.29h-6.07z"/>
 <path d="m20.78 18.11c-0.43 0-0.98-0.14-1.61-0.58l-2.67-1.87c-0.2-0.14-0.32-0.37-0.32-0.62v-6.08c0-0.25 0.12-0.47999 0.32-0.62l2.67-1.87c1.19-0.83 2.06-0.59 2.47-0.38 0.41 0.22 1.11 0.79 1.11 2.24v7.33c0 1.45-0.7 2.03-1.11 2.24-0.19 0.11-0.49 0.21-0.86 0.21zm-3.09-3.47 2.35 1.64c0.45 0.31 0.77 0.34 0.9 0.27 0.14-0.07 0.29-0.35 0.29-0.89v-7.32c0-0.55-0.16-0.82-0.29-0.89s-0.45-0.04-0.9 0.27l-2.35 1.64v5.28z"/>
 <path d="m11.5 11.75c-1.24 0-2.25-1.01-2.25-2.25s1.01-2.25 2.25-2.25 2.25 1.01 2.25 2.25-1.01 2.25-2.25 2.25zm0-3c-0.41 0-0.75 0.34-0.75 0.75s0.34 0.75 0.75 0.75 0.75-0.34 0.75-0.75-0.34-0.75-0.75-0.75z"/>
</svg>
